X:1
T:Title
%%score ( 1 2 ) { 3 | 4 }
L:1/8
Q:1/4=92
M:4/4
K:G
V:1 treble nm="Grand Piano, Soprano"
V:2 treble 
V:3 bass nm="Choir Pad, Some Blessèd Day (Queen)"
V:4 bass 
V:1
 z2 G6 | z2 z G- G3- G/ z/ | GE B,2 B,2 B,[DG] | [DG][GB]A-[FA-] [FA-][FA-] [FA]2 | z2 G6 | %5
 z2 z G- G3- G/ z/ | dc B2- [GB-]2 [GB]G | [FA][FA]GF EE D2 | dd d2- [Fd-]2 [Gd][Gd] | %9
 [Ge][Gd][GB]B- [GB-][GB-] [GB-][G-B]/G/ | dd d2- [Fd-]2 [Gd][GB] | %11
 [GB][GB]A-[FA-] [FA-][FA-] [FA]2 | z2 G6 | z2 z G- G3- G/ z/ | dc B2- [GB-]2 [GB]G | %15
 [FA][FA]GF EE D2- | D4 z4 |] %17
V:2
 BA D2 D2 D[DB] | [DA][DG][CE]E EEDC | z2 D6 | z2 .F2 z4 | BA D2 D2 D[DB] | [DA][DG][CE]E EEDD | %6
 z2 G2 z4 | x8 | z2 G2 z4 | z2 z G z4 | z2 G2 z4 | z2 .F2 z4 | BA D2 D2 D[DB] | %13
 [DA][DG][CE]E EEDD | z2 G2 z4 | x8 | x8 |] %17
V:3
 z2 B,2 B,2 B,G, | F,G,G,[K:treble]C CCB,B, | z2[K:bass] G,2 G,2 G,B, | D[K:treble]DDD DD D2 | %4
 z2[K:bass] B,2 B,2 B,G, | F,G,G,[K:treble]C CCB,B, | z2 D2 D2 DD | DC[K:bass]B,B, CC B,2 | %8
 z2 B,2 A,2 B,B, | CB,[K:treble]DD DDDD | z2[K:bass] B,2 A,2 B,D | D[K:treble]DDD DD D2 | %12
 z2[K:bass] B,2 B,2 B,G, | F,G,G,[K:treble]C CCB,B, | z2 D2 D2 DD | DC[K:bass]B,B, CC B,2- | %16
 B,4 z4 |] %17
V:4
 z2 G,,2 G,,2 G,,G,, | G,,B,,C,C, C,E,G,G, | z2 G,,2 G,,2 G,,G,, | B,,G,,D,D, D,D, D,2 | %4
 z2 G,,2 G,,2 G,,G,, | A,,B,,C,C, C,E, .G,2 | z2 G,2 G,2 G,B,, | D,D, G,,6 | z2 G,2 D,2 G,G, | %9
 G,G,G,G, G,G,G,G, | z2 G,2 D,2 G,G, | G,B,,D,D, D,D, D,2 | z2 G,,2 G,,2 G,,G,, | %13
 A,,B,,C,C, C,E, .G,2 | z2 G,2 G,2 G,B,, | D,D, G,,6- | G,,4 z4 |] %17

